app/src/auth/assets/streamr-logo.svg

<svg xmlns="http://www.w3.org/2000/svg" width="100" height="41" viewBox="0 0 100 41">
  <g fill="none" fill-rule="evenodd">
    <path fill="#FFF" d="M36.757,40.228 C34.439,40.228 32.862,39.335 31.722,38.081 L33.622,36.162 C34.515,37.169 35.655,37.682 36.947,37.682 C38.353,37.682 39.037,37.055 39.037,36.086 C39.037,35.364 38.733,34.832 37.498,34.661 L36.187,34.49 C33.394,34.129 32.121,32.761 32.121,30.538 C32.121,28.163 33.983,26.51 37.099,26.51 C39.094,26.51 40.614,27.175 41.697,28.372 L39.778,30.31 C39.151,29.569 38.296,29.056 36.928,29.056 C35.636,29.056 35.009,29.55 35.009,30.348 C35.009,31.26 35.484,31.602 36.586,31.773 L37.897,31.982 C40.614,32.419 41.925,33.635 41.925,35.915 C41.925,38.461 40.063,40.228 36.757,40.228 Z M48.64,40 L46.968,40 C45.03,40 44.004,38.993 44.004,37.093 L44.004,32.21 L42.598,32.21 L42.598,30.025 L43.301,30.025 C44.061,30.025 44.289,29.645 44.289,28.961 L44.289,27.327 L46.816,27.327 L46.816,30.025 L48.792,30.025 L48.792,32.21 L46.816,32.21 L46.816,37.815 L48.64,37.815 L48.64,40 Z M52.961,40 L50.149,40 L50.149,30.025 L52.961,30.025 L52.961,32.191 L53.056,32.191 C53.284,31.089 54.044,30.025 55.602,30.025 L56.096,30.025 L56.096,32.647 L55.393,32.647 C53.759,32.647 52.961,33.008 52.961,34.167 L52.961,40 Z M61.2909999,40.228 C58.2319999,40.228 56.5029999,38.195 56.5029999,35.003 C56.5029999,31.849 58.1749999,29.797 61.1769999,29.797 C64.4829999,29.797 65.8129999,32.191 65.8129999,34.889 L65.8129999,35.725 L59.4099999,35.725 L59.4099999,35.877 C59.4099999,37.188 60.1129999,38.024 61.6139999,38.024 C62.7919999,38.024 63.4379999,37.473 64.0649999,36.827 L65.4709999,38.575 C64.5779999,39.601 63.1149999,40.228 61.2909999,40.228 Z M61.2339999,31.868 C60.1129999,31.868 59.4099999,32.685 59.4099999,33.92 L59.4099999,34.072 L62.9059999,34.072 L62.9059999,33.901 C62.9059999,32.685 62.3549999,31.868 61.2339999,31.868 Z M76.1379999,40 L74.5799999,40 C73.5729999,40 72.8509999,39.316 72.6799999,38.252 L72.5659999,38.252 C72.2619999,39.544 71.1599999,40.228 69.6399999,40.228 C67.6449999,40.228 66.5429999,39.05 66.5429999,37.321 C66.5429999,35.212 68.1769999,34.205 70.8179999,34.205 L72.3949999,34.205 L72.3949999,33.578 C72.3949999,32.609 71.9199999,32.001 70.7419999,32.001 C69.6209999,32.001 69.0319999,32.571 68.5949999,33.179 L66.9229999,31.697 C67.7209999,30.519 68.8609999,29.797 70.9509999,29.797 C73.7629999,29.797 75.2069999,31.089 75.2069999,33.445 L75.2069999,37.815 L76.1379999,37.815 L76.1379999,40 Z M70.6849999,38.271 C71.6159999,38.271 72.3949999,37.891 72.3949999,36.979 L72.3949999,35.801 L71.0269999,35.801 C69.9439999,35.801 69.3739999,36.2 69.3739999,36.922 L69.3739999,37.207 C69.3739999,37.929 69.8489999,38.271 70.6849999,38.271 Z M80.2309999,40 L77.4189999,40 L77.4189999,30.025 L80.2309999,30.025 L80.2309999,31.716 L80.3449999,31.716 C80.7059999,30.652 81.5419999,29.797 83.0239999,29.797 C84.3919999,29.797 85.3799999,30.5 85.8169999,31.811 L85.8739999,31.811 C86.2349999,30.69 87.3939999,29.797 88.9139999,29.797 C90.8329999,29.797 91.8969999,31.241 91.8969999,33.749 L91.8969999,40 L89.0849999,40 L89.0849999,33.977 C89.0849999,32.685 88.6479999,32.077 87.7169999,32.077 C86.8809999,32.077 86.0639999,32.552 86.0639999,33.54 L86.0639999,40 L83.2519999,40 L83.2519999,33.977 C83.2519999,32.685 82.7959999,32.077 81.8839999,32.077 C81.0669999,32.077 80.2309999,32.552 80.2309999,33.54 L80.2309999,40 Z M96.6169999,40 L93.8049999,40 L93.8049999,30.025 L96.6169999,30.025 L96.6169999,32.191 L96.7119999,32.191 C96.9399999,31.089 97.6999999,30.025 99.2579999,30.025 L99.7519999,30.025 L99.7519999,32.647 L99.0489999,32.647 C97.4149999,32.647 96.6169999,33.008 96.6169999,34.167 L96.6169999,40 Z"/>
    <path fill="#FF5C00" d="M23.7588116,1.75655031 L23.7588116,0.660842925 C23.7588116,0.285194465 23.4457052,-0.0170810272 23.070453,0.000750387063 C15.7048901,0.35064236 9.80229575,6.28665412 9.50536968,13.6659538 C9.52121982,14.1284478 9.8954814,14.2495033 10.1156003,14.2495033 L11.2284126,14.2495033 C11.58055,14.2495033 11.8692208,13.9730503 11.8875145,13.6213752 C12.2035929,7.55057117 17.0741446,2.68523678 23.147062,2.37741374 C23.6102165,2.31790965 23.7588116,2.06476961 23.7588116,1.75655031 M13.7421137,14.2495033 L14.8070454,14.2495033 C15.1527767,14.2495033 15.4346451,13.9800508 15.4598072,13.6352441 C15.7608279,9.51077194 19.0678948,6.22080997 23.1997637,5.94666849 C23.38455,5.93445066 23.7588116,5.7960921 23.7588116,5.3172856 L23.7588116,4.23287145 C23.7588116,3.84969417 23.4338836,3.54873952 23.0514988,3.5737035 C17.7062352,3.9225388 13.4318471,8.19699296 13.0829458,13.5422566 C13.0580478,13.9245753 13.3589364,14.2495033 13.7421137,14.2495033 M23.7588116,7.8107117 L23.7588116,8.90007902 C23.7588116,9.34586438 23.3718699,9.50621502 23.1831211,9.52899961 C21.0214253,9.78986659 19.3064395,11.501154 19.0398269,13.6610666 C18.9985504,13.9954387 18.7203143,14.2495033 18.3834327,14.2495033 L17.3199539,14.2495033 C16.9321537,14.2495033 16.6234061,13.9165181 16.6620408,13.5306331 C16.9988564,10.165449 19.6747573,7.48954811 23.0399414,7.15273251 C23.4258264,7.11416382 23.7588116,7.42291146 23.7588116,7.8107117 Z M36.2434498,23.7285378 C35.9352305,23.7285378 35.6820905,23.5799427 35.6225864,23.1167882 C35.3146973,17.0438048 30.449429,12.1733191 24.3786249,11.8572408 C24.0269498,11.838947 23.7504308,11.5502763 23.7504308,11.1981389 L23.7504308,10.0852605 C23.7504308,9.86514158 23.8714863,9.49088 24.3339804,9.4750959 C31.713346,9.77202197 37.6492918,15.6746163 37.9992498,23.0401792 C38.0170812,23.4154314 37.7147396,23.7285378 37.3391572,23.7285378 L36.2434498,23.7285378 Z M23.7504308,13.7118399 C23.7504308,13.3286626 24.0753588,13.027708 24.4577436,13.052672 C29.8030072,13.4015073 34.0774614,17.6759614 34.4262966,23.021225 C34.4512606,23.4036098 34.150306,23.7285378 33.7671287,23.7285378 L32.6826485,23.7285378 C32.203842,23.7285378 32.0655495,23.3542762 32.0532656,23.1694899 C31.7791902,19.0376211 28.4892282,15.7304881 24.3647561,15.4295335 C24.0198833,15.4043713 23.7504308,15.1225029 23.7504308,14.7767716 L23.7504308,13.7118399 Z M30.1892885,23.7285378 L29.0998551,23.7285378 C28.6540697,23.7285378 28.4937851,23.3415301 28.4710005,23.1528473 C28.2101336,20.9911516 26.4987801,19.2760997 24.3388675,19.0095531 C24.0045615,18.9682767 23.7504308,18.6900406 23.7504308,18.3531589 L23.7504308,17.2896802 C23.7504308,16.9018799 24.083416,16.5931323 24.469301,16.631701 C27.8345511,16.9685166 30.510452,19.6444175 30.8472016,23.0096676 C30.8858363,23.3955527 30.5770887,23.7285378 30.1892885,23.7285378 Z M1.75655031,14.2466635 C2.0647696,14.2466635 2.31790964,14.3952586 2.37741373,14.8584131 C2.68530282,20.9313305 7.55057117,25.8018822 13.6213752,26.1179605 C13.9730503,26.1362542 14.2495693,26.424925 14.2495693,26.7770624 L14.2495693,27.8899408 C14.2495693,28.1100597 14.1284478,28.4843213 13.6660198,28.5001054 C6.28672016,28.2031793 0.350708401,22.3005849 0.000750385588,14.9350221 C-0.0170810286,14.5597699 0.285194464,14.2466635 0.660908966,14.2466635 L1.75655031,14.2466635 Z M14.2495693,24.2633614 C14.2495693,24.6465386 13.9246413,24.9474272 13.5422566,24.9225293 C8.19699296,24.573628 3.9225388,20.2992398 3.5737035,14.9539762 C3.54873952,14.5715915 3.84969417,14.2466635 4.23287145,14.2466635 L5.31735165,14.2466635 C5.79615814,14.2466635 5.93445066,14.620925 5.94673453,14.8057113 C6.22080997,18.9375802 9.51077194,22.2447132 13.6352441,22.5456678 C13.9801169,22.5708299 14.2495693,22.8526984 14.2495693,23.1984297 L14.2495693,24.2633614 Z M7.81071169,14.2466635 L8.90014506,14.2466635 C9.34593042,14.2466635 9.50621502,14.6336712 9.5289996,14.822354 C9.78993263,16.9840497 11.5012201,18.6990355 13.6611327,18.9656482 C13.9954387,19.0069246 14.2495693,19.2851607 14.2495693,19.6220424 L14.2495693,20.6855211 C14.2495693,21.0733214 13.9165842,21.382069 13.5306992,21.3435003 C10.165449,21.0066187 7.48954811,18.3307178 7.15273251,14.9655336 C7.11416382,14.5796486 7.42291146,14.2466635 7.81071169,14.2466635 Z M14.252178,36.2489314 C14.252178,35.9407121 14.4007731,35.687572 14.8639276,35.6280679 C20.936911,35.3202449 25.8073967,30.4549105 26.1234751,24.3841064 C26.1417688,24.0324313 26.4304395,23.7559123 26.782577,23.7559123 L27.8953893,23.7559123 C28.1155742,23.7559123 28.4897698,23.8770339 28.5056199,24.3394619 C28.2086938,31.7188275 22.3060995,37.6547733 14.9405366,38.0047313 C14.5652844,38.0225627 14.252178,37.7202872 14.252178,37.3445727 L14.252178,36.2489314 Z M24.2688759,23.7559123 C24.6520532,23.7559123 24.9530078,24.0808403 24.9280438,24.4632251 C24.5792085,29.8084887 20.3047544,34.0829429 14.9594908,34.4317782 C14.577106,34.4567421 14.252178,34.1557875 14.252178,33.7726102 L14.252178,32.68813 C14.252178,32.2093235 14.6264396,32.071031 14.8112259,32.0587471 C18.9430947,31.7846717 22.2502277,28.4947097 22.5511824,24.3702376 C22.5763445,24.0253648 22.8582129,23.7559123 23.2039442,23.7559123 L24.2688759,23.7559123 Z M14.252178,30.19477 L14.252178,29.1053366 C14.252178,28.6595512 14.6391857,28.4992666 14.8278685,28.4764821 C16.9895643,28.2156151 18.7046161,26.5042616 18.9711627,24.344349 C19.0124391,24.010043 19.2906752,23.7559123 19.6275569,23.7559123 L20.6910356,23.7559123 C21.0788359,23.7559123 21.3875835,24.0888975 21.3489488,24.4747825 C21.0121992,27.8400327 18.3362983,30.5159336 14.9710482,30.8526831 C14.5851632,30.8913178 14.252178,30.5825702 14.252178,30.19477 Z"/>
  </g>
</svg>

<svg xmlns="http://www.w3.org/2000/svg" width="100" height="41"><g fill="none" fill-rule="evenodd"><path fill="#FFF" d="M36.76 40.23c-2.32 0-3.9-.9-5.04-2.15l1.9-1.92c.9 1 2.04 1.52 3.33 1.52 1.4 0 2.09-.63 2.09-1.6 0-.72-.3-1.25-1.54-1.42l-1.31-.17c-2.8-.36-4.07-1.73-4.07-3.95 0-2.38 1.86-4.03 4.98-4.03 2 0 3.51.66 4.6 1.86l-1.92 1.94a3.47 3.47 0 0 0-2.85-1.25c-1.3 0-1.92.49-1.92 1.29 0 .91.47 1.25 1.58 1.42l1.3.21c2.72.44 4.03 1.65 4.03 3.93 0 2.55-1.86 4.32-5.16 4.32zM48.64 40h-1.67C45.03 40 44 39 44 37.1V32.2h-1.4v-2.19h.7c.76 0 .99-.38.99-1.06v-1.63h2.53v2.7h1.97v2.18h-1.97v5.6h1.82V40zm4.32 0h-2.81v-9.98h2.81v2.17h.1c.22-1.1.98-2.16 2.54-2.16h.5v2.62h-.7c-1.64 0-2.44.36-2.44 1.52V40zm8.33.23c-3.06 0-4.79-2.03-4.79-5.23 0-3.15 1.67-5.2 4.68-5.2 3.3 0 4.63 2.4 4.63 5.09v.84h-6.4v.15c0 1.3.7 2.14 2.2 2.14 1.18 0 1.83-.55 2.45-1.2l1.41 1.76a5.4 5.4 0 0 1-4.18 1.65zm-.06-8.36c-1.12 0-1.82.82-1.82 2.05v.15h3.5v-.17c0-1.21-.56-2.03-1.68-2.03zM76.13 40h-1.55c-1 0-1.73-.68-1.9-1.75h-.11c-.3 1.3-1.41 1.98-2.93 1.98-2 0-3.1-1.18-3.1-2.9 0-2.12 1.64-3.13 4.28-3.13h1.57v-.62c0-.97-.47-1.58-1.65-1.58-1.12 0-1.7.57-2.15 1.18l-1.67-1.48c.8-1.18 1.94-1.9 4.03-1.9 2.81 0 4.26 1.29 4.26 3.64v4.38h.93V40zm-5.45-1.73c.94 0 1.71-.38 1.71-1.3V35.8h-1.36c-1.09 0-1.66.4-1.66 1.12v.29c0 .72.48 1.06 1.31 1.06zM80.23 40h-2.81v-9.98h2.81v1.7h.11a2.66 2.66 0 0 1 2.68-1.92c1.37 0 2.36.7 2.8 2.01h.05c.36-1.12 1.52-2.01 3.04-2.01 1.92 0 2.99 1.44 2.99 3.95V40h-2.82v-6.02c0-1.3-.43-1.9-1.36-1.9-.84 0-1.66.47-1.66 1.46V40h-2.8v-6.02c0-1.3-.46-1.9-1.38-1.9-.81 0-1.65.47-1.65 1.46V40zm16.39 0H93.8v-9.98h2.82v2.17h.1c.22-1.1.98-2.16 2.54-2.16h.5v2.62h-.71c-1.64 0-2.43.36-2.43 1.52V40z"/><path fill="#FF5C00" d="M23.76 1.76V.66a.66.66 0 0 0-.69-.66A14.27 14.27 0 0 0 9.51 13.67c.01.46.39.58.6.58h1.12c.35 0 .64-.28.66-.63A11.89 11.89 0 0 1 23.15 2.38c.46-.06.6-.32.6-.62m-10 12.49h1.06c.34 0 .62-.27.65-.61a8.32 8.32 0 0 1 7.74-7.7.6.6 0 0 0 .56-.62V4.23a.66.66 0 0 0-.7-.66 10.7 10.7 0 0 0-9.98 9.97c-.02.38.28.71.66.71m10.02-6.44V8.9c0 .45-.39.6-.58.63a4.76 4.76 0 0 0-4.14 4.13.66.66 0 0 1-.66.59h-1.06a.66.66 0 0 1-.66-.72 7.14 7.14 0 0 1 6.38-6.38c.39-.04.72.27.72.66zm12.48 15.92c-.3 0-.56-.15-.62-.61a11.89 11.89 0 0 0-11.24-11.26.66.66 0 0 1-.63-.66v-1.11c0-.22.12-.6.58-.61 7.38.3 13.32 6.2 13.67 13.56a.66.66 0 0 1-.66.69h-1.1zM23.75 13.7c0-.38.33-.68.7-.66a10.7 10.7 0 0 1 9.98 9.97c.02.38-.28.7-.66.7h-1.09a.6.6 0 0 1-.63-.55 8.32 8.32 0 0 0-7.69-7.74.66.66 0 0 1-.61-.65V13.7zm6.44 10.02H29.1c-.45 0-.6-.39-.63-.58a4.76 4.76 0 0 0-4.13-4.14.66.66 0 0 1-.59-.66V17.3c0-.39.33-.7.72-.66a7.13 7.13 0 0 1 6.38 6.38.66.66 0 0 1-.66.72zM1.76 14.25c.3 0 .56.15.62.6a11.89 11.89 0 0 0 11.24 11.27c.35.02.63.3.63.66v1.11c0 .22-.12.6-.58.61A14.27 14.27 0 0 1 0 14.94a.66.66 0 0 1 .66-.7h1.1zm12.49 10.01c0 .39-.33.69-.7.66a10.7 10.7 0 0 1-9.98-9.97.66.66 0 0 1 .66-.7h1.09a.6.6 0 0 1 .63.56 8.32 8.32 0 0 0 7.69 7.74c.34.02.61.3.61.65v1.06zM7.81 14.25H8.9c.45 0 .6.38.63.57a4.76 4.76 0 0 0 4.13 4.15c.34.04.59.32.59.65v1.07c0 .38-.33.7-.72.65a7.14 7.14 0 0 1-6.38-6.37.66.66 0 0 1 .66-.72zm6.44 22c0-.3.15-.56.61-.62a11.89 11.89 0 0 0 11.26-11.25c.02-.35.31-.62.66-.62h1.12c.22 0 .59.12.6.58A14.27 14.27 0 0 1 14.95 38a.66.66 0 0 1-.69-.66v-1.1zm10.02-12.5c.38 0 .68.33.66.71a10.7 10.7 0 0 1-9.97 9.97.66.66 0 0 1-.7-.66V32.7a.6.6 0 0 1 .55-.63 8.32 8.32 0 0 0 7.74-7.69c.03-.34.3-.61.65-.61h1.07zM14.25 30.2v-1.08c0-.45.39-.61.58-.63a4.76 4.76 0 0 0 4.14-4.14.66.66 0 0 1 .66-.58h1.06c.39 0 .7.33.66.71a7.13 7.13 0 0 1-6.38 6.38.66.66 0 0 1-.72-.66z"/></g></svg>
